X:35
T:Flowers of Spring, The
T:Tom Billy's
R:jig
H:Also played in Ador, see #317
D:De Dannan
Z:id:hn-jig-35
M:6/8
K:Edor
~E3 EFA|BAF D2F|AFE DED|DFA BAd|~E3 EFA|BAF D2F|AFF dFF|1 EFE E2D:|2 EFE E3||
|:Bee ede|~f3 edB|BdB DFA|~B3 dBA|Bee ede|~f3 edB|BdB AFD|1 EFE E3:|2 EFE E2D||
<end>
<start>
